X: 16123
T: Green Groves Of Erin, The
R: reel
M: 4/4
K: Adorian
A2cA eAcA|G2Bd gdBG|A2cA eAcA|BGED EA~A2|
A2cA eAcA|G2Bd gdBG|A2cA eAcA|1 BGED EGBG:|2 BGED EGBd||
ea~a2 ea~a2|eg~g2 egdg|ea~a2 ea~a2|edef gedg|
ea~a2 bgag|edef g3e|dega b2 ag|1 egfa gedg:|2 egfa gedB||

